X: 3
T:  The Star of Munster Lower Octave (Replaces B part last time through and as needed for fun)
M: C|
L: 1/8
K:Ador
|: "Am"A3B AGEG | AGAB AGEF|"G"G2GA GFEF|GFGA GFE2 |
| "Am"A3B AGEG | AGAB AGEF| "G"G4 "Am"A4 |[1 "G"B3A "Em"GFE2 :|   [2 "G"B3A "Em"GFED|["transition" "G"B4 "A"^c4 ||


